;FLAVOR:RepRap
;TIME:1325
;Filament used: 0.946349m
;Layer height: 0.1
;MINX:91.416
;MINY:80.552
;MINZ:0.3
;MAXX:121.759
;MAXY:110.254
;MAXZ:23.1
;Generated with Cura_SteamEngine 4.11.0
T0
M190 S70
M104 S222
M109 S222
M82 ;absolute extrusion mode
G21       ;metric values
G90       ;absolute positioning
M82       ;set extruder to absolute mode
M106      ;start with the fan on
G28 X0 Y0 ;home X/Y
G28 Z0    ;home Z
G92 E0    ;zero the extruded length
G29       ;initiate auto bed leveling sequence
M107      ;start with the fan off
;end cleaning sequance
;G92 X132.4 Y20 ;correct bed origin (G29 changes it)
M83 ;relative extrusion mode
G1 F1500 E-6.5
;LAYER_COUNT:229
;LAYER:0
M107
G0 F3600 X95.137 Y85.765 Z0.3
;TYPE:SKIRT
G1 F1500 E6.5
G1 F1800 X95.742 Y85.109 E0.04452
G1 X96.388 Y84.487 E0.04474
G1 X97.044 Y83.926 E0.04306
G1 X97.733 Y83.4 E0.04325
G1 X98.489 Y82.891 E0.04547
G1 X99.224 Y82.457 E0.04258
G1 X100.013 Y82.048 E0.04434
G1 X100.815 Y81.691 E0.0438
G1 X101.619 Y81.387 E0.04288
G1 X102.493 Y81.113 E0.0457
G1 X103.318 Y80.908 E0.04241
G1 X104.179 Y80.743 E0.04374
G1 X105.06 Y80.627 E0.04433
G1 X105.942 Y80.564 E0.04412
G1 X106.809 Y80.552 E0.04326
G1 X107.687 Y80.59 E0.04384
G1 X108.577 Y80.681 E0.04463
G1 X109.437 Y80.821 E0.04347
G1 X110.301 Y81.012 E0.04415
G1 X111.134 Y81.248 E0.04319
G1 X111.983 Y81.543 E0.04484
G1 X112.779 Y81.872 E0.04297
G1 X113.573 Y82.256 E0.044
G1 X114.328 Y82.675 E0.04308
G1 X115.095 Y83.16 E0.04527
G1 X115.8 Y83.669 E0.04338
G1 X116.467 Y84.209 E0.04282
G1 X117.127 Y84.809 E0.0445
G1 X117.772 Y85.472 E0.04615
G1 X118.298 Y86.079 E0.04007
G1 X118.857 Y86.799 E0.04548
G1 X119.362 Y87.539 E0.0447
G1 X119.797 Y88.264 E0.04218
G1 X120.219 Y89.063 E0.04508
G1 X120.572 Y89.842 E0.04267
G1 X120.895 Y90.676 E0.04462
G1 X121.168 Y91.532 E0.04483
G1 X121.378 Y92.349 E0.04209
G1 X121.552 Y93.231 E0.04485
G1 X121.671 Y94.097 E0.04361
G1 X121.74 Y94.958 E0.04309
G1 X121.759 Y95.86 E0.04501
G1 X121.726 Y96.725 E0.04319
G1 X121.643 Y97.599 E0.0438
G1 X121.508 Y98.474 E0.04417
G1 X121.32 Y99.346 E0.0445
G1 X121.091 Y100.175 E0.04291
G1 X120.807 Y101.014 E0.04419
G1 X120.481 Y101.819 E0.04333
G1 X120.099 Y102.625 E0.0445
G1 X119.687 Y103.379 E0.04287
G1 X119.206 Y104.149 E0.04529
G1 X118.702 Y104.858 E0.0434
G1 X118.166 Y105.529 E0.04285
G1 X117.561 Y106.202 E0.04515
G1 X116.933 Y106.821 E0.04399
G1 X116.293 Y107.384 E0.04253
G1 X115.595 Y107.933 E0.0443
G1 X114.867 Y108.438 E0.0442
G1 X114.125 Y108.891 E0.04337
G1 X113.344 Y109.309 E0.04419
G1 X112.963 Y109.492 E0.02109
G1 X112.235 Y109.797 E0.03938
G1 X111.48 Y110.028 E0.03939
G1 X110.705 Y110.18 E0.0394
G1 X109.918 Y110.254 E0.03944
G1 X109.129 Y110.248 E0.03936
G1 X108.344 Y110.161 E0.0394
G1 X107.572 Y109.996 E0.03939
G1 X106.82 Y109.754 E0.03941
G1 X106.585 Y109.651 E0.0128
G1 X106.3 Y109.774 E0.01549
G1 X105.547 Y110.011 E0.03938
G1 X104.773 Y110.17 E0.03942
G1 X103.988 Y110.251 E0.03937
G1 X103.198 Y110.251 E0.03941
G1 X102.412 Y110.172 E0.03941
G1 X101.639 Y110.014 E0.03936
G1 X100.885 Y109.778 E0.03942
G1 X100.207 Y109.491 E0.03673
G1 X99.416 Y109.096 E0.04411
G1 X98.651 Y108.657 E0.044
G1 X97.911 Y108.172 E0.04414
G1 X97.24 Y107.676 E0.04163
G1 X96.53 Y107.087 E0.04602
G1 X95.907 Y106.504 E0.04257
G1 X95.28 Y105.845 E0.04538
G1 X94.719 Y105.18 E0.04341
G1 X94.206 Y104.498 E0.04258
G1 X93.699 Y103.736 E0.04566
G1 X93.263 Y102.985 E0.04332
G1 X92.871 Y102.215 E0.04311
G1 X92.512 Y101.396 E0.04461
G1 X92.214 Y100.589 E0.04292
G1 X91.95 Y99.726 E0.04502
G1 X91.747 Y98.89 E0.04292
G1 X91.586 Y98.007 E0.04478
G1 X91.482 Y97.168 E0.04218
G1 X91.422 Y96.266 E0.0451
G1 X91.416 Y95.402 E0.04311
G1 X91.46 Y94.519 E0.04411
G1 X91.555 Y93.647 E0.04376
G1 X91.702 Y92.767 E0.04451
G1 X91.9 Y91.905 E0.04413
G1 X92.142 Y91.073 E0.04323
G1 X92.44 Y90.236 E0.04433
G1 X92.778 Y89.435 E0.04337
G1 X93.16 Y88.656 E0.04329
G1 X93.597 Y87.879 E0.04448
G1 X94.075 Y87.138 E0.04399
G1 X94.586 Y86.438 E0.04324
G1 X95.137 Y85.765 E0.04339
G0 F3600 X95.436 Y86.032
G1 F1800 X96.024 Y85.393 E0.04332
G1 X96.653 Y84.787 E0.04358
G1 X97.291 Y84.24 E0.04193
G1 X97.962 Y83.728 E0.04211
G1 X98.697 Y83.233 E0.04421
G1 X99.413 Y82.809 E0.04151
G1 X100.181 Y82.411 E0.04316
G1 X100.962 Y82.063 E0.04266
G1 X101.745 Y81.766 E0.04178
G1 X102.595 Y81.5 E0.04443
G1 X103.399 Y81.299 E0.04135
G1 X104.237 Y81.139 E0.04256
G1 X105.094 Y81.026 E0.04313
G1 X105.954 Y80.964 E0.04302
G1 X106.798 Y80.952 E0.04211
G1 X107.653 Y80.989 E0.0427
G1 X108.519 Y81.077 E0.04343
G1 X109.356 Y81.212 E0.0423
G1 X110.197 Y81.399 E0.04298
G1 X111.009 Y81.628 E0.04209
G1 X111.835 Y81.915 E0.04363
G1 X112.61 Y82.235 E0.04183
G1 X113.384 Y82.608 E0.04287
G1 X114.12 Y83.016 E0.04198
G1 X114.866 Y83.488 E0.04404
G1 X115.553 Y83.983 E0.04224
G1 X116.203 Y84.509 E0.04172
G1 X116.845 Y85.093 E0.0433
G1 X117.473 Y85.737 E0.04488
G1 X117.986 Y86.33 E0.03912
G1 X118.53 Y87.03 E0.04423
G1 X119.022 Y87.749 E0.04347
G1 X119.447 Y88.456 E0.04115
G1 X119.857 Y89.234 E0.04387
G1 X120.202 Y89.992 E0.04155
G1 X120.516 Y90.804 E0.04343
G1 X120.782 Y91.637 E0.04363
G1 X120.987 Y92.432 E0.04096
G1 X121.157 Y93.291 E0.04369
G1 X121.273 Y94.134 E0.04245
G1 X121.34 Y94.973 E0.04199
G1 X121.359 Y95.851 E0.04381
G1 X121.327 Y96.693 E0.04204
G1 X121.247 Y97.544 E0.04264
G1 X121.116 Y98.396 E0.04301
G1 X120.933 Y99.245 E0.04333
G1 X120.71 Y100.053 E0.04182
G1 X120.434 Y100.87 E0.04302
G1 X120.117 Y101.654 E0.04219
G1 X119.745 Y102.438 E0.04329
G1 X119.344 Y103.173 E0.04177
G1 X118.876 Y103.922 E0.04406
G1 X118.386 Y104.613 E0.04226
G1 X117.864 Y105.266 E0.04171
G1 X117.276 Y105.921 E0.04391
G1 X116.665 Y106.525 E0.04286
G1 X116.042 Y107.074 E0.04143
G1 X115.362 Y107.608 E0.04314
G1 X114.653 Y108.1 E0.04305
G1 X113.931 Y108.541 E0.04221
G1 X113.171 Y108.948 E0.04301
G1 X112.79 Y109.131 E0.02109
G1 X112.08 Y109.428 E0.0384
G1 X111.344 Y109.649 E0.03834
G1 X110.588 Y109.793 E0.0384
G1 X109.821 Y109.857 E0.0384
G1 X109.052 Y109.842 E0.03837
G1 X108.289 Y109.746 E0.03837
G1 X107.54 Y109.573 E0.03835
G1 X106.813 Y109.322 E0.03837
G1 X106.593 Y109.219 E0.01212
G1 X105.935 Y109.478 E0.03528
G1 X105.193 Y109.684 E0.03842
G1 X104.435 Y109.812 E0.03835
G1 X103.667 Y109.861 E0.03839
G1 X102.899 Y109.829 E0.03835
G1 X102.138 Y109.718 E0.03837
G1 X101.392 Y109.528 E0.03841
G1 X100.38 Y109.131 E0.05423
G1 X99.61 Y108.746 E0.04295
G1 X98.865 Y108.319 E0.04284
G1 X98.145 Y107.848 E0.04292
G1 X97.49 Y107.364 E0.04063
G1 X96.8 Y106.792 E0.04471
G1 X96.192 Y106.223 E0.04154
G1 X95.582 Y105.582 E0.04415
G1 X95.036 Y104.936 E0.0422
G1 X94.536 Y104.271 E0.04151
G1 X94.042 Y103.53 E0.04443
G1 X93.617 Y102.799 E0.04219
G1 X93.235 Y102.049 E0.04199
G1 X92.885 Y101.252 E0.04343
G1 X92.594 Y100.465 E0.04186
G1 X92.337 Y99.626 E0.04378
G1 X92.139 Y98.812 E0.04179
G1 X91.982 Y97.953 E0.04357
G1 X91.88 Y97.135 E0.04113
G1 X91.822 Y96.257 E0.0439
G1 X91.816 Y95.416 E0.04196
G1 X91.858 Y94.556 E0.04296
G1 X91.95 Y93.707 E0.0426
G1 X92.094 Y92.851 E0.04331
G1 X92.286 Y92.011 E0.04299
G1 X92.521 Y91.201 E0.04208
G1 X92.81 Y90.386 E0.04314
G1 X93.139 Y89.606 E0.04223
G1 X93.511 Y88.847 E0.04217
G1 X93.937 Y88.091 E0.04329
G1 X94.402 Y87.369 E0.04284
G1 X94.899 Y86.687 E0.0421
G1 X95.436 Y86.032 E0.04226
G0 F3600 X95.734 Y86.298
G1 F1800 X96.306 Y85.677 E0.04212
G1 X96.917 Y85.087 E0.04237
G1 X97.538 Y84.555 E0.0408
G1 X98.191 Y84.056 E0.041
G1 X98.905 Y83.574 E0.04298
G1 X99.602 Y83.162 E0.04039
G1 X100.349 Y82.774 E0.042
G1 X101.108 Y82.435 E0.04147
G1 X101.871 Y82.146 E0.04071
G1 X102.697 Y81.887 E0.04319
G1 X103.48 Y81.691 E0.04027
G1 X104.295 Y81.535 E0.0414
G1 X105.129 Y81.424 E0.04198
G1 X105.965 Y81.364 E0.04182
G1 X106.787 Y81.352 E0.04101
G1 X107.618 Y81.387 E0.0415
G1 X108.461 Y81.473 E0.04228
G1 X109.275 Y81.604 E0.04113
G1 X110.094 Y81.785 E0.04185
G1 X110.884 Y82.008 E0.04095
G1 X111.687 Y82.286 E0.04239
G1 X112.442 Y82.598 E0.04076
G1 X113.195 Y82.961 E0.0417
G1 X113.911 Y83.357 E0.04082
G1 X114.637 Y83.816 E0.04285
G1 X115.306 Y84.297 E0.04111
G1 X115.938 Y84.809 E0.04058
G1 X116.563 Y85.377 E0.04213
G1 X117.173 Y86.003 E0.04361
G1 X117.674 Y86.58 E0.03812
G1 X118.203 Y87.261 E0.04302
G1 X118.682 Y87.96 E0.04228
G1 X119.096 Y88.648 E0.04006
G1 X119.495 Y89.404 E0.04265
G1 X119.831 Y90.142 E0.04046
G1 X120.137 Y90.932 E0.04227
G1 X120.396 Y91.741 E0.04238
G1 X120.596 Y92.516 E0.03993
G1 X120.761 Y93.351 E0.04246
G1 X120.874 Y94.171 E0.0413
G1 X120.94 Y94.988 E0.04089
G1 X120.959 Y95.842 E0.04262
G1 X120.929 Y96.662 E0.04094
G1 X120.851 Y97.489 E0.04144
G1 X120.723 Y98.318 E0.04185
G1 X120.546 Y99.144 E0.04214
G1 X120.33 Y99.93 E0.04067
G1 X120.061 Y100.725 E0.04187
G1 X119.752 Y101.488 E0.04107
G1 X119.392 Y102.251 E0.04209
G1 X119.001 Y102.967 E0.0407
G1 X118.547 Y103.695 E0.0428
G1 X118.07 Y104.367 E0.04111
G1 X117.562 Y105.003 E0.04061
G1 X116.99 Y105.641 E0.04275
G1 X116.396 Y106.228 E0.04166
G1 X115.79 Y106.763 E0.04033
G1 X115.129 Y107.282 E0.04193
G1 X114.44 Y107.761 E0.04187
G1 X113.737 Y108.191 E0.04111
G1 X112.998 Y108.588 E0.04185
G1 X112.617 Y108.771 E0.02109
G1 X111.926 Y109.058 E0.03733
G1 X111.209 Y109.27 E0.0373
G1 X110.473 Y109.405 E0.03733
G1 X109.727 Y109.46 E0.03732
G1 X108.979 Y109.435 E0.03734
G1 X108.238 Y109.33 E0.03734
G1 X107.513 Y109.147 E0.0373
G1 X106.811 Y108.888 E0.03733
G1 X106.585 Y108.776 E0.01258
G1 X106.278 Y108.923 E0.01698
G1 X105.573 Y109.173 E0.03732
G1 X104.845 Y109.347 E0.03734
G1 X104.103 Y109.442 E0.03732
G1 X103.355 Y109.457 E0.03733
G1 X102.61 Y109.393 E0.03731
G1 X101.876 Y109.249 E0.03732
G1 X101.161 Y109.028 E0.03734
G1 X100.554 Y108.77 E0.03291
G1 X99.804 Y108.396 E0.04181
G1 X99.079 Y107.981 E0.04168
G1 X98.378 Y107.523 E0.04178
G1 X97.74 Y107.052 E0.03956
G1 X97.069 Y106.496 E0.04348
G1 X96.478 Y105.943 E0.04038
G1 X95.884 Y105.32 E0.04295
G1 X95.352 Y104.691 E0.0411
G1 X94.865 Y104.044 E0.0404
G1 X94.385 Y103.324 E0.04317
G1 X93.971 Y102.612 E0.04109
G1 X93.599 Y101.882 E0.04088
G1 X93.259 Y101.108 E0.04218
G1 X92.975 Y100.342 E0.04076
G1 X92.725 Y99.527 E0.04253
G1 X92.532 Y98.734 E0.04072
G1 X92.378 Y97.898 E0.04241
G1 X92.279 Y97.102 E0.04002
G1 X92.222 Y96.249 E0.04265
G1 X92.215 Y95.43 E0.04086
G1 X92.257 Y94.593 E0.04181
G1 X92.346 Y93.767 E0.04145
G1 X92.485 Y92.935 E0.04208
G1 X92.672 Y92.117 E0.04186
G1 X92.9 Y91.329 E0.04093
G1 X93.181 Y90.536 E0.04197
G1 X93.501 Y89.777 E0.04109
G1 X93.862 Y89.038 E0.04103
G1 X94.276 Y88.302 E0.04213
G1 X94.728 Y87.6 E0.04165
G1 X95.212 Y86.936 E0.04099
G1 X95.734 Y86.298 E0.04113
G0 F3600 X96.032 Y86.565
G1 F1800 X96.587 Y85.961 E0.04092
G1 X97.181 Y85.387 E0.04121
G1 X97.785 Y84.869 E0.0397
G1 X98.42 Y84.384 E0.03986
G1 X99.113 Y83.916 E0.04172
G1 X99.791 Y83.514 E0.03932
G1 X100.517 Y83.137 E0.04081
G1 X101.255 Y82.807 E0.04033
G1 X101.997 Y82.526 E0.03958
G1 X102.799 Y82.274 E0.04194
G1 X103.56 Y82.083 E0.03914
G1 X104.353 Y81.93 E0.04029
G1 X105.164 Y81.823 E0.04081
G1 X105.976 Y81.764 E0.04062
G1 X106.775 Y81.752 E0.03987
G1 X107.584 Y81.786 E0.0404
G1 X108.403 Y81.868 E0.04106
G1 X109.195 Y81.996 E0.04003
G1 X109.99 Y82.171 E0.04061
G1 X110.759 Y82.388 E0.03986
G1 X111.54 Y82.658 E0.04123
G1 X112.274 Y82.961 E0.03962
G1 X113.006 Y83.313 E0.04052
G1 X113.703 Y83.699 E0.03975
G1 X114.408 Y84.144 E0.04159
G1 X115.058 Y84.612 E0.03996
G1 X115.674 Y85.109 E0.03949
G1 X116.282 Y85.661 E0.04097
G1 X116.874 Y86.268 E0.0423
G1 X117.362 Y86.831 E0.03717
G1 X117.877 Y87.491 E0.04177
G1 X118.341 Y88.171 E0.04107
G1 X118.745 Y88.84 E0.03899
G1 X119.133 Y89.575 E0.04147
G1 X119.46 Y90.292 E0.03932
G1 X119.758 Y91.059 E0.04105
G1 X120.01 Y91.845 E0.04118
G1 X120.204 Y92.6 E0.03889
G1 X120.366 Y93.411 E0.04126
G1 X120.476 Y94.208 E0.04014
G1 X120.54 Y95.003 E0.03979
G1 X120.559 Y95.832 E0.04137
G1 X120.53 Y96.63 E0.03984
G1 X120.454 Y97.434 E0.04029
G1 X120.331 Y98.239 E0.04063
G1 X120.159 Y99.043 E0.04102
G1 X119.949 Y99.808 E0.03958
G1 X119.688 Y100.58 E0.04066
G1 X119.388 Y101.322 E0.03993
G1 X119.038 Y102.064 E0.04093
G1 X118.658 Y102.761 E0.03961
G1 X118.218 Y103.468 E0.04155
G1 X117.754 Y104.122 E0.04001
G1 X117.26 Y104.741 E0.03951
G1 X116.705 Y105.36 E0.04148
G1 X116.128 Y105.931 E0.0405
G1 X115.538 Y106.452 E0.03927
G1 X114.896 Y106.957 E0.04075
G1 X114.226 Y107.423 E0.04072
G1 X113.543 Y107.842 E0.03998
G1 X112.825 Y108.227 E0.04065
G1 X112.444 Y108.41 E0.02109
G1 X111.772 Y108.688 E0.03628
G1 X111.075 Y108.891 E0.03622
G1 X110.359 Y109.016 E0.03626
G1 X109.634 Y109.061 E0.03624
G1 X108.909 Y109.026 E0.03621
G1 X108.192 Y108.912 E0.03622
G1 X107.491 Y108.72 E0.03626
G1 X106.816 Y108.452 E0.03623
G1 X106.573 Y108.346 E0.01323
G1 X105.908 Y108.639 E0.03625
G1 X105.215 Y108.857 E0.03624
G1 X104.503 Y108.997 E0.0362
G1 X103.779 Y109.058 E0.03625
G1 X103.053 Y109.039 E0.03623
G1 X102.333 Y108.941 E0.03625
G1 X101.629 Y108.764 E0.03622
G1 X100.727 Y108.41 E0.04834
G1 X99.998 Y108.047 E0.04063
G1 X99.293 Y107.643 E0.04054
G1 X98.612 Y107.198 E0.04059
G1 X97.99 Y106.74 E0.03854
G1 X97.339 Y106.201 E0.04217
G1 X96.763 Y105.662 E0.03936
G1 X96.186 Y105.058 E0.04167
G1 X95.668 Y104.446 E0.04
G1 X95.194 Y103.817 E0.03929
G1 X94.728 Y103.118 E0.04191
G1 X94.325 Y102.426 E0.03995
G1 X93.962 Y101.716 E0.03978
G1 X93.632 Y100.963 E0.04102
G1 X93.355 Y100.219 E0.03961
G1 X93.112 Y99.427 E0.04133
G1 X92.924 Y98.655 E0.03964
G1 X92.774 Y97.844 E0.04115
G1 X92.678 Y97.069 E0.03896
G1 X92.621 Y96.24 E0.04146
G1 X92.615 Y95.444 E0.03971
G1 X92.655 Y94.63 E0.04066
G1 X92.741 Y93.827 E0.04029
G1 X92.876 Y93.018 E0.04092
G1 X93.057 Y92.223 E0.04068
G1 X93.279 Y91.457 E0.03979
G1 X93.552 Y90.686 E0.04081
G1 X93.862 Y89.948 E0.03994
G1 X94.214 Y89.229 E0.03994
G1 X94.616 Y88.514 E0.04092
G1 X95.055 Y87.831 E0.04051
G1 X95.525 Y87.185 E0.03986
G1 X96.032 Y86.565 E0.03996
G0 F3600 X96.33 Y86.831
G1 F1800 X96.869 Y86.245 E0.03972
G1 X97.446 Y85.688 E0.04001
G1 X98.033 Y85.184 E0.0386
G1 X98.649 Y84.712 E0.03872
G1 X99.321 Y84.257 E0.04049
G1 X99.98 Y83.866 E0.03823
G1 X100.686 Y83.5 E0.03967
G1 X101.402 Y83.18 E0.03913
G1 X102.123 Y82.905 E0.0385
G1 X102.9 Y82.66 E0.04065
G1 X103.641 Y82.475 E0.0381
G1 X104.412 Y82.326 E0.03918
G1 X105.198 Y82.221 E0.03956
G1 X105.987 Y82.163 E0.03947
G1 X106.764 Y82.151 E0.03877
G1 X107.549 Y82.184 E0.0392
G1 X108.344 Y82.264 E0.03986
G1 X109.114 Y82.388 E0.03891
G1 X109.887 Y82.558 E0.03949
G1 X110.634 Y82.768 E0.03871
G1 X111.392 Y83.029 E0.04
G1 X112.105 Y83.324 E0.0385
G1 X112.817 Y83.665 E0.03939
G1 X113.495 Y84.04 E0.03865
G1 X114.179 Y84.472 E0.04036
G1 X114.811 Y84.926 E0.03882
G1 X115.409 Y85.409 E0.03835
G1 X116 Y85.945 E0.03981
G1 X116.575 Y86.533 E0.04103
G1 X117.05 Y87.081 E0.03618
G1 X117.55 Y87.722 E0.04056
G1 X118.001 Y88.381 E0.03984
G1 X118.394 Y89.032 E0.03794
G1 X118.772 Y89.745 E0.04026
G1 X119.089 Y90.442 E0.0382
G1 X119.379 Y91.187 E0.03988
G1 X119.624 Y91.95 E0.03998
G1 X119.813 Y92.684 E0.03781
G1 X119.971 Y93.471 E0.04005
G1 X120.078 Y94.246 E0.03903
G1 X120.141 Y95.018 E0.03864
G1 X120.159 Y95.823 E0.04017
G1 X120.131 Y96.598 E0.03869
G1 X120.058 Y97.379 E0.03913
G1 X119.939 Y98.161 E0.03946
G1 X119.772 Y98.942 E0.03985
G1 X119.568 Y99.685 E0.03844
G1 X119.315 Y100.435 E0.03949
G1 X119.024 Y101.157 E0.03884
G1 X118.685 Y101.877 E0.0397
G1 X118.316 Y102.554 E0.03847
G1 X117.888 Y103.241 E0.04038
G1 X117.438 Y103.876 E0.03883
G1 X116.959 Y104.478 E0.03838
G1 X116.42 Y105.08 E0.04031
G1 X115.859 Y105.635 E0.03937
G1 X115.286 Y106.141 E0.03814
G1 X114.663 Y106.632 E0.03957
G1 X114.013 Y107.085 E0.03953
G1 X113.349 Y107.492 E0.03885
G1 X112.651 Y107.867 E0.03953
